assets/customers/dark/llamaindex/llamaindex_top.svg

<svg xmlns="http://www.w3.org/2000/svg" width="164" height="32" viewBox="0 0 164 32" fill="none">
  <path fill-rule="evenodd" clip-rule="evenodd" d="M0 6.18266C0 2.76807 2.76806 0 6.18265 0H25.8173C29.2319 0 32 2.76807 32 6.18266V25.8173C32 29.2319 29.2319 32 25.8173 32H6.18265C2.76807 32 0 29.2319 0 25.8173V6.18266ZM7.98095 5.07121C8.07407 6.04013 7.92159 6.25718 7.14427 6.26185C5.70352 6.2705 6.14488 8.09256 7.66871 8.4273C7.89138 8.47614 8.01479 8.50321 8.06202 8.57824C8.12073 8.67151 8.06168 8.83893 7.92921 9.21448C7.55223 10.2824 7.68429 14.5929 8.11475 15.2759C8.20094 15.4126 8.31829 16.0856 8.37559 16.7715C8.49796 18.2363 9.01773 19.1371 10.2158 19.9614C10.932 20.4542 10.9608 20.5086 10.9621 21.3743C10.9628 21.8695 11.0371 22.9153 11.1271 23.6983C11.3061 25.2549 11.0314 26.7309 10.5267 26.9246C9.97401 27.1366 10.2272 27.7269 10.8708 27.7269C11.5333 27.7269 11.894 27.2311 12.3555 25.6869C12.612 24.8284 12.8579 25.0082 12.8621 26.0576C12.8638 26.5196 12.7316 26.8831 12.432 27.2391C11.8333 27.9507 11.8831 28.073 12.7721 28.073C13.75 28.073 13.9248 27.7871 14.0941 25.9095C14.4603 21.8484 14.5287 21.6907 15.8789 21.7903C16.9998 21.8728 18.5546 21.6977 19.3121 21.4034C19.5606 21.3068 19.6149 21.3818 19.6149 21.8219C19.6149 22.1683 19.8296 22.6394 20.2207 23.1519C21.0938 24.2956 20.9763 25.9527 19.9547 26.9045C19.3936 27.4274 19.5218 27.7269 20.3073 27.7269C20.9378 27.7269 20.9996 27.6867 20.9996 27.2758C20.9996 27.0278 21.1923 26.5959 21.4277 26.3161C21.6632 26.0364 21.9447 25.4799 22.0534 25.0795C22.1619 24.6792 22.2832 24.2415 22.323 24.1068C22.3749 23.9311 22.565 24.0263 22.9956 24.4436C23.7435 25.1685 23.888 26.8895 23.2497 27.4672C22.731 27.9366 22.8243 28.073 23.6639 28.073C24.5771 28.073 24.6122 28.0112 24.844 25.996L24.8465 25.9738C24.9451 25.1174 24.9966 24.6699 24.9971 24.2223C24.9976 23.7325 24.9371 23.2427 24.8103 22.2168L24.8068 22.1882C24.3616 18.5844 24.3671 18.4342 24.9657 17.8749C26.5611 16.3847 25.1232 13.7744 22.8217 13.983C21.7548 14.0795 21.4853 14.0432 20.8421 13.715C19.603 13.0827 18.0274 12.8479 15.0054 12.8446C13.3224 12.8428 12.6539 12.8421 12.3616 12.5101C12.1689 12.2914 12.1396 11.9287 12.091 11.3272C11.7789 7.46548 11.1589 5.62352 9.85303 4.67675C9.08419 4.11942 8.88376 4.0739 8.88376 4.45693C8.88376 4.70081 8.84724 4.70081 8.49899 4.45693C7.92886 4.05745 7.88818 4.10557 7.98095 5.07121Z" fill="url(#paint0_linear_10972_5850)"/>
  <path d="M53.058 8.27393V23.2552H56.2076V8.27393H53.058Z" fill="url(#paint1_linear_10972_5850)"/>
  <path fill-rule="evenodd" clip-rule="evenodd" d="M127.791 22.7302C128.611 23.1879 129.533 23.4167 130.557 23.4167C131.512 23.4167 132.326 23.2148 132.999 22.811C133.36 22.5985 133.677 22.3284 133.949 22.0004V23.2552H136.957V8.27393H133.807V13.5254C133.557 13.2519 133.274 13.0224 132.959 12.837C132.272 12.4332 131.472 12.2313 130.557 12.2313C129.533 12.2313 128.611 12.4601 127.791 12.9177C126.97 13.3753 126.317 14.0214 125.832 14.856C125.361 15.6905 125.126 16.6799 125.126 17.8239C125.126 18.9546 125.361 19.9372 125.832 20.7718C126.317 21.6063 126.97 22.2591 127.791 22.7302ZM132.495 20.4689C132.077 20.7112 131.613 20.8323 131.101 20.8323C130.576 20.8323 130.106 20.7112 129.688 20.4689C129.271 20.2266 128.934 19.8834 128.678 19.4392C128.437 18.9816 128.316 18.4431 128.316 17.8239C128.316 17.1913 128.437 16.6529 128.678 16.2088C128.934 15.7646 129.271 15.4214 129.688 15.1791C130.106 14.9368 130.576 14.8156 131.101 14.8156C131.613 14.8156 132.077 14.9368 132.495 15.1791C132.912 15.4214 133.242 15.7646 133.484 16.2088C133.74 16.6529 133.868 17.1913 133.868 17.8239C133.868 18.4431 133.74 18.9816 133.484 19.4392C133.242 19.8834 132.912 20.2266 132.495 20.4689Z" fill="url(#paint2_linear_10972_5850)"/>
  <path fill-rule="evenodd" clip-rule="evenodd" d="M145.264 23.4164C144.025 23.4164 142.935 23.1741 141.993 22.6895C141.064 22.205 140.344 21.5455 139.833 20.711C139.321 19.863 139.065 18.9005 139.065 17.8237C139.065 16.7334 139.315 15.771 139.812 14.9365C140.324 14.0885 141.017 13.4289 141.892 12.9578C142.767 12.4732 143.756 12.231 144.86 12.231C145.923 12.231 146.879 12.4598 147.727 12.9174C148.588 13.3616 149.268 14.0077 149.766 14.8557C150.265 15.6902 150.513 16.6931 150.513 17.8641C150.513 17.9852 150.507 18.1266 150.493 18.2881C150.48 18.4361 150.467 18.5775 150.453 18.7121H142.234C142.297 19.0013 142.399 19.2705 142.538 19.5197C142.807 19.9639 143.177 20.3071 143.648 20.5494C144.133 20.7782 144.698 20.8927 145.344 20.8927C145.923 20.8927 146.428 20.8051 146.859 20.6302C147.303 20.4552 147.707 20.1927 148.07 19.8428L149.746 21.6598C149.248 22.2252 148.622 22.6627 147.868 22.9722C147.115 23.2684 146.246 23.4164 145.264 23.4164ZM142.498 15.9662C142.35 16.2354 142.25 16.5383 142.198 16.8748H147.547C147.496 16.5325 147.394 16.2229 147.242 15.946C147.014 15.5287 146.697 15.2057 146.294 14.9769C145.89 14.7346 145.419 14.6134 144.88 14.6134C144.342 14.6134 143.864 14.7346 143.446 14.9769C143.043 15.2057 142.726 15.5354 142.498 15.9662Z" fill="url(#paint3_linear_10972_5850)"/>
  <path d="M150.941 23.255L155.12 17.776L151.083 12.3926H154.616L156.92 15.565L159.28 12.3926H162.632L158.591 17.7047L162.793 23.255H159.219L156.841 19.9277L154.374 23.255H150.941Z" fill="url(#paint4_linear_10972_5850)"/>
  <path d="M118.457 12.231C119.318 12.231 120.085 12.4059 120.759 12.7559C121.445 13.0924 121.983 13.6173 122.374 14.3308C122.764 15.0307 122.959 15.9325 122.959 17.0363V23.2549H119.809V17.5209C119.809 16.6459 119.614 15.9998 119.224 15.5826C118.847 15.1653 118.308 14.9567 117.609 14.9567C117.111 14.9567 116.659 15.0643 116.256 15.2797C115.866 15.4816 115.555 15.7979 115.327 16.2287C115.111 16.6594 115.004 17.2112 115.004 17.8843V23.2549H111.854V12.3925H114.863V13.6824C115.174 13.3353 115.544 13.0466 115.973 12.8165C116.7 12.4261 117.528 12.231 118.457 12.231Z" fill="url(#paint5_linear_10972_5850)"/>
  <path d="M105.452 9.12207V23.2554H108.723V9.12207H105.452Z" fill="url(#paint6_linear_10972_5850)"/>
  <path fill-rule="evenodd" clip-rule="evenodd" d="M99.4309 23.2549V21.9053C99.1938 22.3039 98.8706 22.6259 98.4618 22.8713C97.856 23.2347 97.0751 23.4164 96.1197 23.4164C95.2717 23.4164 94.5448 23.2751 93.9391 22.9924C93.3334 22.6963 92.8694 22.2992 92.5463 21.8012C92.2233 21.3032 92.0618 20.7446 92.0618 20.1254C92.0618 19.4793 92.2164 18.914 92.5258 18.4294C92.8488 17.9449 93.354 17.5679 94.0404 17.2988C94.7269 17.0161 95.6214 16.8748 96.7254 16.8748H99.229C99.229 16.2017 99.0202 15.6767 98.6035 15.2999C98.1997 14.923 97.5734 14.7346 96.7254 14.7346C96.1463 14.7346 95.5749 14.8287 95.0096 15.0172C94.4572 15.1922 93.9863 15.4345 93.5962 15.7441L92.4656 13.5433C93.0576 13.126 93.7707 12.803 94.6058 12.5742C95.44 12.3453 96.2881 12.231 97.1498 12.231C98.8054 12.231 100.091 12.6213 101.006 13.402C101.921 14.1827 102.379 15.4009 102.379 17.0565V23.2549H99.4309ZM97.069 18.7121H99.229V19.8226C99.0408 20.3071 98.7376 20.6773 98.3208 20.9331C97.9033 21.1753 97.4324 21.2964 96.9075 21.2964C96.3551 21.2964 95.9178 21.182 95.5947 20.9532C95.2854 20.711 95.1307 20.3879 95.1307 19.9841C95.1307 19.6207 95.2648 19.3178 95.5345 19.0755C95.8172 18.8332 96.3284 18.7121 97.069 18.7121Z" fill="url(#paint7_linear_10972_5850)"/>
  <path d="M87.7841 12.7559C87.125 12.4059 86.3639 12.231 85.5029 12.231C84.466 12.231 83.5441 12.4799 82.7365 12.978C82.2842 13.2617 81.9016 13.6022 81.589 13.9995C81.3347 13.5922 81.0106 13.2584 80.6168 12.9982C79.8763 12.4867 79.0085 12.231 78.0119 12.231C77.1235 12.231 76.3296 12.4261 75.6296 12.8165C75.2353 13.0329 74.8921 13.3094 74.5999 13.6458V12.3925H71.5916V23.2549H74.7413V17.8035C74.7413 17.1574 74.8422 16.6257 75.0441 16.2085C75.246 15.7912 75.5287 15.4816 75.8921 15.2797C76.2557 15.0643 76.6664 14.9567 77.1235 14.9567C77.7833 14.9567 78.2877 15.1653 78.6382 15.5826C79.0016 15.9998 79.1829 16.6459 79.1829 17.5209V23.2549H82.3327V17.8035C82.3327 17.1574 82.434 16.6257 82.6359 16.2085C82.8378 15.7912 83.1205 15.4816 83.4839 15.2797C83.8473 15.0643 84.258 14.9567 84.7151 14.9567C85.3749 14.9567 85.8862 15.1653 86.2496 15.5826C86.613 15.9998 86.7951 16.6459 86.7951 17.5209V23.2549H89.9448V17.0363C89.9448 15.9325 89.7498 15.0307 89.3589 14.3308C88.9826 13.6173 88.4576 13.0924 87.7841 12.7559Z" fill="url(#paint8_linear_10972_5850)"/>
  <path fill-rule="evenodd" clip-rule="evenodd" d="M65.7929 23.2549V21.9051C65.5557 22.3039 65.2327 22.6259 64.8237 22.8713C64.218 23.2347 63.4373 23.4164 62.4816 23.4164C61.6336 23.4164 60.9068 23.2751 60.3011 22.9924C59.6953 22.6963 59.231 22.2992 58.9079 21.8012C58.5849 21.3032 58.4233 20.7446 58.4233 20.1254C58.4233 19.4793 58.5782 18.914 58.8877 18.4294C59.2108 17.9449 59.7155 17.5679 60.402 17.2988C61.0885 17.0161 61.9836 16.8748 63.0873 16.8748H65.591C65.591 16.2017 65.3823 15.6767 64.965 15.2999C64.5612 14.923 63.9353 14.7346 63.0873 14.7346C62.5086 14.7346 61.9365 14.8287 61.3712 15.0172C60.8193 15.1922 60.3482 15.4345 59.9578 15.7441L58.8271 13.5433C59.4195 13.126 60.1328 12.803 60.9673 12.5742C61.8019 12.3453 62.6499 12.231 63.5113 12.231C65.167 12.231 66.4524 12.6213 67.3677 13.402C68.283 14.1827 68.7407 15.4009 68.7407 17.0565V23.2549H65.7929ZM63.4306 18.7121H65.591V19.8226C65.4025 20.3071 65.0997 20.6773 64.6824 20.9331C64.2651 21.1753 63.794 21.2964 63.2691 21.2964C62.7172 21.2964 62.2797 21.182 61.9567 20.9532C61.6471 20.711 61.4923 20.3879 61.4923 19.9841C61.4923 19.6207 61.6269 19.3178 61.8961 19.0755C62.1788 18.8332 62.6902 18.7121 63.4306 18.7121Z" fill="url(#paint9_linear_10972_5850)"/>
  <path d="M41.0743 23.2554V9.12207H44.3452V20.5903H51.4321V23.2554H41.0743Z" fill="url(#paint10_linear_10972_5850)"/>
  <defs>
    <linearGradient id="paint0_linear_10972_5850" x1="92.362" y1="7.15825e-07" x2="165.466" y2="8.58855" gradientUnits="userSpaceOnUse">
      <stop stop-color="#FCFCFD"/>
      <stop offset="1" stop-color="#E0E1E6"/>
    </linearGradient>
    <linearGradient id="paint1_linear_10972_5850" x1="92.362" y1="7.15825e-07" x2="165.466" y2="8.58855" gradientUnits="userSpaceOnUse">
      <stop stop-color="#FCFCFD"/>
      <stop offset="1" stop-color="#E0E1E6"/>
    </linearGradient>
    <linearGradient id="paint2_linear_10972_5850" x1="92.362" y1="7.15825e-07" x2="165.466" y2="8.58855" gradientUnits="userSpaceOnUse">
      <stop stop-color="#FCFCFD"/>
      <stop offset="1" stop-color="#E0E1E6"/>
    </linearGradient>
    <linearGradient id="paint3_linear_10972_5850" x1="92.362" y1="7.15825e-07" x2="165.466" y2="8.58855" gradientUnits="userSpaceOnUse">
      <stop stop-color="#FCFCFD"/>
      <stop offset="1" stop-color="#E0E1E6"/>
    </linearGradient>
    <linearGradient id="paint4_linear_10972_5850" x1="92.362" y1="7.15825e-07" x2="165.466" y2="8.58855" gradientUnits="userSpaceOnUse">
      <stop stop-color="#FCFCFD"/>
      <stop offset="1" stop-color="#E0E1E6"/>
    </linearGradient>
    <linearGradient id="paint5_linear_10972_5850" x1="92.362" y1="7.15825e-07" x2="165.466" y2="8.58855" gradientUnits="userSpaceOnUse">
      <stop stop-color="#FCFCFD"/>
      <stop offset="1" stop-color="#E0E1E6"/>
    </linearGradient>
    <linearGradient id="paint6_linear_10972_5850" x1="92.362" y1="7.15825e-07" x2="165.466" y2="8.58855" gradientUnits="userSpaceOnUse">
      <stop stop-color="#FCFCFD"/>
      <stop offset="1" stop-color="#E0E1E6"/>
    </linearGradient>
    <linearGradient id="paint7_linear_10972_5850" x1="92.362" y1="7.15825e-07" x2="165.466" y2="8.58855" gradientUnits="userSpaceOnUse">
      <stop stop-color="#FCFCFD"/>
      <stop offset="1" stop-color="#E0E1E6"/>
    </linearGradient>
    <linearGradient id="paint8_linear_10972_5850" x1="92.362" y1="7.15825e-07" x2="165.466" y2="8.58855" gradientUnits="userSpaceOnUse">
      <stop stop-color="#FCFCFD"/>
      <stop offset="1" stop-color="#E0E1E6"/>
    </linearGradient>
    <linearGradient id="paint9_linear_10972_5850" x1="92.362" y1="7.15825e-07" x2="165.466" y2="8.58855" gradientUnits="userSpaceOnUse">
      <stop stop-color="#FCFCFD"/>
      <stop offset="1" stop-color="#E0E1E6"/>
    </linearGradient>
    <linearGradient id="paint10_linear_10972_5850" x1="92.362" y1="7.15825e-07" x2="165.466" y2="8.58855" gradientUnits="userSpaceOnUse">
      <stop stop-color="#FCFCFD"/>
      <stop offset="1" stop-color="#E0E1E6"/>
    </linearGradient>
  </defs>
</svg>

<svg xmlns="http://www.w3.org/2000/svg" width="164" height="32" fill="none" viewBox="0 0 164 32"><path fill="url(#a)" fill-rule="evenodd" d="M0 6.183A6.183 6.183 0 0 1 6.183 0h19.634A6.183 6.183 0 0 1 32 6.183v19.634A6.183 6.183 0 0 1 25.817 32H6.183A6.183 6.183 0 0 1 0 25.817zM7.98 5.07c.094.97-.058 1.186-.836 1.19-1.44.01-1 1.832.525 2.166.222.05.346.076.393.151.059.094 0 .26-.133.636-.377 1.068-.245 5.379.186 6.062.086.137.203.81.26 1.495.123 1.465.643 2.366 1.84 3.19.717.493.746.548.747 1.413 0 .495.075 1.541.165 2.324.18 1.557-.096 3.033-.6 3.227-.553.212-.3.802.344.802.662 0 1.023-.496 1.484-2.04.257-.859.503-.679.507.37a1.7 1.7 0 0 1-.43 1.182c-.599.712-.549.834.34.834.978 0 1.153-.286 1.322-2.163.366-4.062.435-4.22 1.785-4.12 1.12.083 2.676-.092 3.433-.387.249-.096.303-.021.303.419 0 .346.215.817.606 1.33.873 1.144.755 2.8-.266 3.752-.561.523-.433.823.352.823.63 0 .693-.04.693-.451 0-.248.192-.68.428-.96.235-.28.517-.836.625-1.236.109-.4.23-.838.27-.973.052-.176.242-.08.673.337.748.725.892 2.446.254 3.023-.519.47-.426.606.414.606.913 0 .948-.062 1.18-2.077l.002-.022c.1-.857.15-1.304.151-1.752 0-.49-.06-.98-.187-2.005l-.003-.029c-.445-3.604-.44-3.754.159-4.313 1.595-1.49.157-4.1-2.144-3.892-1.067.096-1.337.06-1.98-.268-1.239-.632-2.815-.867-5.837-.87-1.683-.002-2.351-.003-2.643-.335-.193-.219-.222-.581-.271-1.183-.312-3.862-.932-5.703-2.238-6.65-.769-.558-.97-.603-.97-.22 0 .244-.036.244-.384 0-.57-.4-.61-.351-.518.614" clip-rule="evenodd"/><path fill="url(#b)" d="M53.058 8.274v14.981h3.15V8.274z"/><path fill="url(#c)" fill-rule="evenodd" d="M127.791 22.73q1.23.687 2.766.687 1.433 0 2.442-.606.542-.319.95-.81v1.254h3.008V8.274h-3.15v5.251a3.7 3.7 0 0 0-.848-.688q-1.03-.606-2.402-.606-1.536 0-2.766.687a5.1 5.1 0 0 0-1.959 1.938q-.706 1.252-.706 2.968 0 1.695.706 2.948a5.26 5.26 0 0 0 1.959 1.958m4.704-2.261a2.73 2.73 0 0 1-1.394.363q-.787 0-1.413-.363a2.75 2.75 0 0 1-1.01-1.03q-.362-.686-.362-1.615 0-.95.362-1.615a2.75 2.75 0 0 1 1.01-1.03 2.76 2.76 0 0 1 1.413-.363q.767 0 1.394.363.626.364.989 1.03.384.666.384 1.615 0 .93-.384 1.615a2.6 2.6 0 0 1-.989 1.03" clip-rule="evenodd"/><path fill="url(#d)" fill-rule="evenodd" d="M145.264 23.416q-1.858 0-3.271-.727-1.394-.726-2.16-1.978-.768-1.272-.768-2.887 0-1.635.747-2.888a5.35 5.35 0 0 1 2.08-1.978q1.312-.727 2.968-.727 1.595 0 2.867.686a4.96 4.96 0 0 1 2.039 1.939q.748 1.251.747 3.008 0 .182-.02.424-.02.223-.04.424h-8.219q.095.434.304.808a2.73 2.73 0 0 0 1.11 1.03q.727.343 1.696.343.869 0 1.515-.263a3.7 3.7 0 0 0 1.211-.787l1.676 1.817a5 5 0 0 1-1.878 1.312q-1.13.444-2.604.444m-2.766-7.45q-.222.404-.3.909h5.349a2.8 2.8 0 0 0-.305-.929 2.43 2.43 0 0 0-.948-.97q-.606-.362-1.414-.363-.807 0-1.434.364-.605.343-.948.99" clip-rule="evenodd"/><path fill="url(#e)" d="m150.941 23.255 4.179-5.479-4.037-5.383h3.533l2.304 3.172 2.36-3.172h3.352l-4.041 5.312 4.202 5.55h-3.574l-2.378-3.327-2.467 3.327z"/><path fill="url(#f)" d="M118.457 12.231q1.291 0 2.302.525 1.029.504 1.615 1.575.585 1.05.585 2.705v6.219h-3.15V17.52q0-1.312-.585-1.938-.566-.626-1.615-.626-.748 0-1.353.323-.586.303-.929.949-.323.645-.323 1.655v5.37h-3.15v-10.86h3.009v1.29a4 4 0 0 1 1.11-.866q1.09-.585 2.484-.585"/><path fill="url(#g)" d="M105.452 9.122v14.133h3.271V9.122z"/><path fill="url(#h)" fill-rule="evenodd" d="M99.43 23.255v-1.35a2.76 2.76 0 0 1-.968.966q-.91.546-2.342.545-1.272.001-2.18-.424-.91-.444-1.394-1.19a3 3 0 0 1-.484-1.677q0-.969.464-1.696.485-.726 1.514-1.13 1.03-.424 2.685-.424h2.504q0-1.01-.626-1.575-.605-.565-1.878-.565-.868 0-1.715.282a4.4 4.4 0 0 0-1.414.727l-1.13-2.2q.888-.627 2.14-.97a9.6 9.6 0 0 1 2.544-.343q2.483 0 3.856 1.171 1.373 1.17 1.373 3.655v6.198zm-2.361-4.543h2.16v1.11a2.2 2.2 0 0 1-.908 1.111 2.76 2.76 0 0 1-1.413.363q-.829 0-1.313-.343a1.17 1.17 0 0 1-.464-.969q0-.544.403-.909.424-.363 1.535-.363" clip-rule="evenodd"/><path fill="url(#i)" d="M87.784 12.756q-.989-.525-2.281-.525-1.556 0-2.766.747a4.5 4.5 0 0 0-1.148 1.021 3.2 3.2 0 0 0-.972-1q-1.11-.768-2.605-.768-1.332 0-2.382.585a3.7 3.7 0 0 0-1.03.83v-1.254h-3.008v10.863h3.15v-5.451q0-.97.302-1.595.303-.626.848-.93a2.37 2.37 0 0 1 1.232-.322q.99 0 1.514.626.546.625.545 1.938v5.734h3.15v-5.451q0-.97.303-1.595.303-.626.848-.93a2.37 2.37 0 0 1 1.231-.322q.99 0 1.535.626.545.625.545 1.938v5.734h3.15v-6.219q0-1.655-.586-2.705-.564-1.071-1.575-1.575"/><path fill="url(#j)" fill-rule="evenodd" d="M65.793 23.255v-1.35q-.355.598-.97.966-.908.546-2.341.545-1.272.001-2.18-.424-.91-.444-1.394-1.19a3 3 0 0 1-.485-1.677q0-.969.465-1.696.485-.726 1.514-1.13 1.03-.424 2.685-.424h2.504q0-1.01-.626-1.575-.606-.565-1.878-.565-.867 0-1.716.282a4.4 4.4 0 0 0-1.413.727l-1.13-2.2q.887-.627 2.14-.97a9.6 9.6 0 0 1 2.543-.343q2.483 0 3.857 1.171 1.373 1.17 1.373 3.655v6.198zm-2.362-4.543h2.16v1.11a2.2 2.2 0 0 1-.909 1.111 2.76 2.76 0 0 1-1.413.363q-.829 0-1.312-.343a1.17 1.17 0 0 1-.465-.969q0-.544.404-.909.424-.363 1.535-.363" clip-rule="evenodd"/><path fill="url(#k)" d="M41.074 23.255V9.122h3.271V20.59h7.087v2.665z"/><defs><linearGradient id="a" x1="92.362" x2="165.466" y1="0" y2="8.589" gradientUnits="userSpaceOnUse"><stop stop-color="#FCFCFD"/><stop offset="1" stop-color="#E0E1E6"/></linearGradient><linearGradient id="b" x1="92.362" x2="165.466" y1="0" y2="8.589" gradientUnits="userSpaceOnUse"><stop stop-color="#FCFCFD"/><stop offset="1" stop-color="#E0E1E6"/></linearGradient><linearGradient id="c" x1="92.362" x2="165.466" y1="0" y2="8.589" gradientUnits="userSpaceOnUse"><stop stop-color="#FCFCFD"/><stop offset="1" stop-color="#E0E1E6"/></linearGradient><linearGradient id="d" x1="92.362" x2="165.466" y1="0" y2="8.589" gradientUnits="userSpaceOnUse"><stop stop-color="#FCFCFD"/><stop offset="1" stop-color="#E0E1E6"/></linearGradient><linearGradient id="e" x1="92.362" x2="165.466" y1="0" y2="8.589" gradientUnits="userSpaceOnUse"><stop stop-color="#FCFCFD"/><stop offset="1" stop-color="#E0E1E6"/></linearGradient><linearGradient id="f" x1="92.362" x2="165.466" y1="0" y2="8.589" gradientUnits="userSpaceOnUse"><stop stop-color="#FCFCFD"/><stop offset="1" stop-color="#E0E1E6"/></linearGradient><linearGradient id="g" x1="92.362" x2="165.466" y1="0" y2="8.589" gradientUnits="userSpaceOnUse"><stop stop-color="#FCFCFD"/><stop offset="1" stop-color="#E0E1E6"/></linearGradient><linearGradient id="h" x1="92.362" x2="165.466" y1="0" y2="8.589" gradientUnits="userSpaceOnUse"><stop stop-color="#FCFCFD"/><stop offset="1" stop-color="#E0E1E6"/></linearGradient><linearGradient id="i" x1="92.362" x2="165.466" y1="0" y2="8.589" gradientUnits="userSpaceOnUse"><stop stop-color="#FCFCFD"/><stop offset="1" stop-color="#E0E1E6"/></linearGradient><linearGradient id="j" x1="92.362" x2="165.466" y1="0" y2="8.589" gradientUnits="userSpaceOnUse"><stop stop-color="#FCFCFD"/><stop offset="1" stop-color="#E0E1E6"/></linearGradient><linearGradient id="k" x1="92.362" x2="165.466" y1="0" y2="8.589" gradientUnits="userSpaceOnUse"><stop stop-color="#FCFCFD"/><stop offset="1" stop-color="#E0E1E6"/></linearGradient></defs></svg>
